X: 21257
T: Keep Off The Grass
R: slide
M: 12/8
K: Gmajor
|:~B3 BAB|~e2d ~B2G|~A3 AGA|ABA G2A|
~B3 BAB|~e2d ~B2G|~A3 ABA|1 G3 G2A:|2 G3 GBd||
|:g2 g2 fg|egg dBG|~A3 AGA|ABA GBd|
g2 g2 fg|egg dBG|~A3 ABA|1 G3 GBd:|2 G3 G2A||

